X: 1
T: Bangor Regatta
R: jig
B: Kerr's Violin III
Z: John Chambers <jc:trillian.mit.edu>
M: 6/8
L: 1/8
K: A
A \
| "A"EAc e2f | "A"ecA "(D)"a2f | "A"ecA "F#m"EAc | "Bm"dBB "E7"B2A \
| "A"EAc e2f | "A"ecA "(D)"a2f | "A"ecA EAc | "E7"BAA "A"A2 :|
e \
| "A"efe a2g | "D"bag "E7"fga | "A"ecA "F#m"EAc | "Bm"dBB "E7"B2e \
| "A"efe a2g | "D"bag "E7"fga | "A"ecA EAc | "E7"BAA "A"A2 ||
e \
| "A"efe a2g | "D"bag "E7"fga | "A"ecA "F#m"EAc | "Bm"dBB "E7"B2c \
| "A"EAc e2f | "A"ecA "(D)"a2f | "A"ecA EAc | "E7"BAA "A"A2 |]
